X: 335
T:My Wife's A Wanton Wee Thing
% Nottingham Music Database
S:For Pat's Tradition, via Phil Rowe
M:6/8
K:D
f/2e/2|"D"d2A dfe|d3 A2B|"C"=cdc cGE|=c3 E2^c|
"D"d2A dfe|"D"d3 "A7"A2G|"D"FDF "C"E=CE|"D"D3 -D2::
F/2G/2|"D"ABA FDF|"Am"A3 =c3|"C"G=cG ECE|"G"G3 B3|
"D"AdA FDF|"D"A3 "A7"g3|"D"fdf "A7"ece|"D"d3 -d2f/2g/2||
"D"aba fdf|aba fdf|"C"gag e=ce|gag e=ce|
"D"aba fdf|"D"aba "G"gab|"D"fga "A7"gec|"D"d3 -d2:|<end>
<start>
